X:141
T:Rambler's Hornpipe
M:C|
L:1/8
K:D major
%
((3ABc) !segno! |: "D"d2 cd BdAF | DFAd f2 ed | "A"cdef gece |
"D"defd A2 (3ABc | d2 cd BdAF | DFAd f2 ed | "A"cdef gece |
[1 "D"d2 f2 d2 ((3ABc) :| [2 d2 f2 "^Fine"d2 cd |: "A"efed c2 A2 | AEAc e2 dc |
"G"BGBd gfed | "A"cAce a2 cd | efed c2 A2 | AEAc e2 dc |
"G"BGBd gfed | [1 "A"c2 A2 A2 cd :| [2 "A"c2 A2 A2 "^D.S. al Fine"((3ABc) |
